X: 21367
T: Kerry Lasses, The
R: reel
M: 4/4
K: Amixolydian
F3G AF~F2|AG~G2 dcAG|F3G AF~F2|1 BGAG FDDE:|2 BGAG FD~D2||
efed cBcd|eg~g2 e~aag|efed cBcd|eage d2cd|
efed cBcd|eg~g2 e~aag|abag efed|(3Bcd ef dBAG||

